icons/evolvere-blue-folders-flat-vivid-dark-fallback/apps/64/im-msn.svg

<?xml version="1.0" encoding="UTF-8" standalone="no"?>
<!-- Created with Inkscape (http://www.inkscape.org/) -->

<svg
   xmlns:dc="http://purl.org/dc/elements/1.1/"
   xmlns:cc="http://creativecommons.org/ns#"
   xmlns:rdf="http://www.w3.org/1999/02/22-rdf-syntax-ns#"
   xmlns:svg="http://www.w3.org/2000/svg"
   xmlns="http://www.w3.org/2000/svg"
   xmlns:sodipodi="http://sodipodi.sourceforge.net/DTD/sodipodi-0.dtd"
   xmlns:inkscape="http://www.inkscape.org/namespaces/inkscape"
   width="64"
   height="64"
   id="svg13094"
   version="1.1"
   inkscape:version="0.91+devel r"
   sodipodi:docname="im-msn.svg">
  <sodipodi:namedview
     id="base"
     pagecolor="#ffffff"
     bordercolor="#666666"
     borderopacity="1.0"
     inkscape:pageopacity="0"
     inkscape:pageshadow="2"
     inkscape:zoom="11.313709"
     inkscape:cx="24.213177"
     inkscape:cy="31.821472"
     inkscape:document-units="px"
     inkscape:current-layer="svg13094"
     showgrid="false"
     inkscape:snap-bbox="true"
     inkscape:bbox-paths="true"
     inkscape:bbox-nodes="true"
     inkscape:snap-bbox-edge-midpoints="true"
     inkscape:snap-bbox-midpoints="true"
     inkscape:object-paths="true"
     inkscape:snap-intersection-paths="true"
     inkscape:object-nodes="true"
     inkscape:snap-smooth-nodes="true"
     inkscape:snap-midpoints="true"
     inkscape:snap-object-midpoints="true"
     inkscape:snap-center="true"
     showguides="true"
     inkscape:guide-bbox="true"
     inkscape:window-width="1920"
     inkscape:window-height="1023"
     inkscape:window-x="-10"
     inkscape:window-y="35"
     inkscape:window-maximized="1"
     inkscape:snap-global="true"
     fit-margin-top="0"
     fit-margin-left="0"
     fit-margin-right="0"
     fit-margin-bottom="0"
     showborder="true"
     inkscape:showpageshadow="false"
     inkscape:snap-page="true">
    <inkscape:grid
       type="xygrid"
       id="grid3075"
       empspacing="5"
       visible="true"
       enabled="true"
       snapvisiblegridlinesonly="true"
       originx="0px"
       originy="18px" />
  </sodipodi:namedview>
  <defs
     id="defs13096" />
  <metadata
     id="metadata13099">
    <rdf:RDF>
      <cc:Work
         rdf:about="">
        <dc:format>image/svg+xml</dc:format>
        <dc:type
           rdf:resource="http://purl.org/dc/dcmitype/StillImage" />
        <dc:title></dc:title>
      </cc:Work>
    </rdf:RDF>
  </metadata>
  <path
     id="path3398"
     d="m 0,4 0,30 0,28 2,2 30,0 30,0 2,-2 L 64,34 64,4 32,4 0,4 z"
     style="color:#000000;fill:#bbc6ce;fill-opacity:1;fill-rule:nonzero;stroke:none;stroke-width:2.28571415000000000;marker:none;visibility:visible;display:inline;overflow:visible;enable-background:accumulate"
     inkscape:connector-curvature="0" />
  <path
     inkscape:connector-curvature="0"
     id="path7"
     d="M 2,0 0,1 0,4 0,34 0,46.25 c 0.40597703,0.20603 0.80499148,0.421768 1.21875,0.625 C 25.850631,59.188475 34.78528,29.251757 19.28125,12.6875 15.333844,8.4815922 10.388084,4.1252204 4.9375,0 L 2,0 z"
     style="fill:#2b9dc4;fill-opacity:1;fill-rule:evenodd" />
  <path
     inkscape:connector-curvature="0"
     id="path9"
     d="M 10.96875,15.90625 C 6.8760173,16.090692 3.0563668,18.494745 0,22.1875 L 0,34 0,60.53125 C 0.81467139,61.691361 1.6759041,62.844885 2.5625,64 L 32,64 34.03125,64 C 34.200413,51.180173 31.523989,35.19208 25.4375,25.625 20.868644,18.462586 15.74452,15.691026 10.96875,15.90625 z"
     style="fill:#65aa35;fill-opacity:1;fill-rule:evenodd" />
  <path
     inkscape:connector-curvature="0"
     id="path11"
     d="M 46.65625,2.9375 C 30.848016,2.9276271 16.849738,10.969635 16.71875,22.25 16.537245,34.96793 24.298862,52.331014 37.1875,64 L 62,64 64,62 64,34 64,6.34375 C 58.359694,3.9902953 52.390196,2.9410811 46.65625,2.9375 z"
     style="fill:#cdb52b;fill-opacity:1;fill-rule:evenodd" />
  <path
     inkscape:connector-curvature="0"
     id="path13"
     d="m 16.96875,0 c -5.49471,15.967709 -2.215715,37.311334 19.5,41.78125 C 47.814358,44.183416 56.844247,43.286636 64,40.21875 L 64,34 64,4 64,1 62,0 32,0 16.96875,0 z"
     style="fill:#b03e1e;fill-opacity:1;fill-rule:evenodd" />
  <path
     inkscape:connector-curvature="0"
     id="path15"
     d="M 46.65625,2.9375 C 30.847414,2.92763 16.849738,10.969635 16.71875,22.25 c 0,1.27228 0.0092,2.76144 0.21875,4.03125 2.971113,7.433945 9.128658,13.372143 19.53125,15.5 C 47.764189,44.180312 56.823399,43.343897 64,40.3125 L 64,34 64,6.34375 C 58.359289,3.9902953 52.390415,2.9410811 46.65625,2.9375 z"
     style="fill:#d1621a;fill-opacity:1;fill-rule:evenodd" />
  <path
     style="fill:#1f70bb;fill-opacity:1;fill-rule:evenodd"
     inkscape:connector-curvature="0"
     d="M 34.137494,61.097376 C 22.245647,48.778972 12.69124,26.060442 15.026214,8.435949 c 13.161658,12.52552 18.687187,35.034469 19.11128,52.661427 l 0,0 z"
     id="path19"
     clip-rule="evenodd" />
  <path
     id="path6161"
     d="M 2,0 0,1 0,4 32,4 64,4 64,1 62,0 32,0 2,0 z"
     style="color:#000000;fill:#f3f6f6;fill-opacity:1;fill-rule:nonzero;stroke:none;stroke-width:2.28571415;marker:none;visibility:visible;display:inline;overflow:visible;enable-background:accumulate"
     inkscape:connector-curvature="0" />
  <rect
     transform="scale(-1,1)"
     y="6.738079e-07"
     x="-56.53754"
     height="3.9999993"
     width="19.707277"
     id="rect6156"
     style="color:#000000;fill:#ffa356;fill-opacity:1;fill-rule:nonzero;stroke:none;stroke-width:1;marker:none;visibility:visible;display:inline;overflow:visible;enable-background:accumulate" />
  <path
     inkscape:connector-curvature="0"
     style="color:#000000;fill:#ea804c;fill-opacity:1;fill-rule:nonzero;stroke:none;stroke-width:1;marker:none;visibility:visible;display:inline;overflow:visible;enable-background:accumulate"
     d="m 15.8125,0 0,4 L 32,4 l 4.84375,0 0,-4 L 32,0 15.8125,0 z m 40.71875,0 0,4 L 64,4 64,1 62,0 56.53125,0 z"
     id="rect6158" />
  <path
     inkscape:connector-curvature="0"
     style="color:#000000;fill:#7ad8f9;fill-opacity:1;fill-rule:nonzero;stroke:none;stroke-width:1;marker:none;visibility:visible;display:inline;overflow:visible;enable-background:accumulate"
     d="m 2,0 -2,1 0,3 9.96875,0 0,-4 L 2,0 z"
     id="rect6152" />
  <path
     d="M 64,6 62,4 64,3 z"
     id="path3028"
     style="fill:#c95c34;fill-opacity:1"
     inkscape:connector-curvature="0" />
  <g
     id="g3043"
     inkscape:export-filename="folder.png"
     inkscape:export-xdpi="90"
     inkscape:export-ydpi="90"
     transform="translate(-0.625,0.082283)" />
  <g
     id="scalable"
     transform="matrix(1.0385892,0,0,1.0385892,1214.7222,1878.8121)"
     inkscape:label="#g3701"
     style="fill:#ffffff" />
  <path
     inkscape:connector-curvature="0"
     id="path5599"
     d="m 32,0 0,4 0,30 32,0 L 64,4 64,1 62,0 32,0 z m 0,34 -32,0 0,28 2,2 30,0 0,-30 z"
     style="color:#000000;fill:url(#linearGradient5601);fill-opacity:1;fill-rule:nonzero;stroke:none;marker:none;visibility:visible;display:inline;overflow:visible;enable-background:accumulate" />
  <path
     id="path6208"
     d="m 15,19.65395 c 0,12.725186 4.194858,23.282636 10.604321,29.6921 2.664867,-1.538687 5.211176,-4.319988 6.428764,-6.428976 1.217589,2.108988 3.697727,4.890289 6.362594,6.428976 C 44.805142,42.936586 49,32.379136 49,19.65395 c -6.362593,0 -11.743862,2.9743 -14.912222,10.604321 0.05726,-2.099231 -1.096062,-4.241728 -2.054693,-4.241728 -0.958418,0 -2.178127,2.142497 -2.120864,4.241728 C 26.743862,22.62825 21.362593,19.65395 15,19.65395 z"
     style="fill:#e5ecf2;fill-opacity:1;stroke:none"
     inkscape:connector-curvature="0" />
  <path
     style="fill:#99e1fa;fill-opacity:1;fill-rule:nonzero"
     d="M 0,3 0,6 2,4 Z"
     id="path4298"
     inkscape:connector-curvature="0"
     sodipodi:nodetypes="cccc" />
</svg>

<svg xmlns="http://www.w3.org/2000/svg" viewBox="0 0 64 64"><path d="m0 4v30 28l2 2h30 30l2-2v-28-30h-32-32" fill="#bbc6ce" color="#000"/><g fill-rule="evenodd"><path d="m2 0l-2 1v3 30 12.25c.406.206.805.422 1.219.625 24.632 12.313 33.567-17.623 18.06-34.19-3.947-4.206-8.893-8.562-14.344-12.688h-2.938" fill="#2b9dc4"/><path d="m10.969 15.906c-4.093.184-7.912 2.588-10.969 6.281v11.813 26.531c.815 1.16 1.676 2.314 2.563 3.469h29.438 2.031c.169-12.82-2.507-28.808-8.594-38.37-4.569-7.162-9.693-9.934-14.469-9.719" fill="#65aa35"/><path d="m46.656 2.938c-15.808-.01-29.807 8.03-29.938 19.313-.182 12.718 7.58 30.08 20.469 41.75h24.813l2-2v-28-27.656c-5.64-2.353-11.61-3.403-17.344-3.406" fill="#cdb52b"/><path d="m16.969 0c-5.495 15.968-2.216 37.31 19.5 41.781 11.346 2.402 20.375 1.505 27.531-1.563v-6.219-30-3l-2-1h-30-15.03" fill="#b03e1e"/><path d="m46.656 2.938c-15.809-.01-29.807 8.03-29.938 19.313 0 1.272.009 2.761.219 4.03 2.971 7.434 9.129 13.372 19.531 15.5 11.295 2.399 20.355 1.563 27.531-1.469v-6.313-27.656c-5.641-2.353-11.61-3.403-17.344-3.406" fill="#d1621a"/><path d="m34.14 61.1c-11.892-12.318-21.446-35.04-19.11-52.661 13.162 12.526 18.687 35.03 19.11 52.661" fill="#1f70bb"/></g><g color="#000"><path d="m2 0l-2 1v3h32 32v-3l-2-1h-30-30" fill="#f3f6f6"/><path transform="scale(-1 1)" fill="#ffa356" d="m-56.54 0h19.707v4h-19.707z"/><path d="m15.813 0v4h16.188 4.844v-4h-4.844-16.188m40.719 0v4h7.469v-3l-2-1h-5.469" fill="#ea804c"/><path d="m2 0l-2 1v3h9.969v-4h-7.969" fill="#7ad8f9"/></g><path d="m64 6l-2-2 2-1z" fill="#c95c34"/><path d="m15 19.654c0 12.725 4.195 23.283 10.604 29.692 2.665-1.539 5.211-4.32 6.429-6.429 1.218 2.109 3.698 4.89 6.363 6.429 6.409-6.409 10.604-16.967 10.604-29.692-6.363 0-11.744 2.974-14.912 10.604.057-2.099-1.096-4.242-2.055-4.242-.958 0-2.178 2.142-2.121 4.242-3.168-7.63-8.55-10.604-14.912-10.604" fill="#e5ecf2"/><path d="m0 3v3l2-2" fill="#99e1fa"/></svg>
